src/pos-icons/arrange-bring-to-front.svg

<svg height="24" viewBox="0 0 24 24" width="24" xmlns="http://www.w3.org/2000/svg"><path d="m2 2h9v4h-2v-2h-5v5h2v2h-4zm20 11v9h-9v-4h2v2h5v-5h-2v-2zm-14-5h8v8h-8z"/></svg>

<?xml version="1.0" encoding="UTF-8"?><!DOCTYPE svg PUBLIC "-//W3C//DTD SVG 1.1//EN" "http://www.w3.org/Graphics/SVG/1.1/DTD/svg11.dtd"><svg xmlns="http://www.w3.org/2000/svg" xmlns:xlink="http://www.w3.org/1999/xlink" version="1.1" id="mdi-arrange-bring-to-front" width="24" height="24" viewBox="0 0 24 24"><path d="M2,2H11V6H9V4H4V9H6V11H2V2M22,13V22H13V18H15V20H20V15H18V13H22M8,8H16V16H8V8Z" /></svg>
